X: 3832
T: Black Herdsman's Delight, The
R: jig
M: 6/8
K: Gmajor
E/F/|GBG FGA|BGB AFD|GBG FGA|GFE D2 E/F/|
GBG FGA|BGB AFD|GBd ecd|BcA G2:|
B/A/|GBd gdB|ecA dBG|ceg dBG|cdB A2 B/A/|
GBG FGA|BGB AFD|GBd ecd|BcA G2:|

